X:1
T:Sinaloa, 76.76.77.76
T:Sinaloa, 76.76.77.76
T:Hubert Platt Main, 1886
T:Public Domain Courtesy of the Cyber Hymnal™
C:Hubert Platt Main, 1886
Z:Public Domain
Z:Courtesy of the Cyber Hymnal™
%%score ( 1 2 ) ( 3 4 )
L:1/8
Q:1/4=110
M:4/4
K:Bb
V:1 treble 
V:2 treble 
V:3 bass 
V:4 bass 
V:1
 [DF]2 [DF]2 [EG]2 [EG]2 | [EB]2 [EB]2 [EF]4 | [Dd]2 (cB) [=EA]2 [EB]2 | [Ec]4 [EF]2 z2 | %4
 [DF]2 [DF]2 [EG]2 [EG]2 | [EB]2 [EB]2 [EF]4 | [Dd]2 (cB) [=EA]2 [EB]2 | [Ec]4 [DB]2 z2 | %8
 [Fc]3 [Fc] [Fd]3 [_Ad] | [Ge]2 [Ee]2 [Fd]4 | [Fc]2 [CF]2 [FB]2 [FA]2 | G2 [=EG]2 F4 | %12
 [FB]2 [Fc]2 [Fd]2 (cB) | [Ee]2 [Fd]2 [Fc]4 | [Ff]2 ([Ge][Fd]) [=Ec]2 [EB]2 | %15
 [EA]4 !fermata![DB]2 z2 |] %16
V:2
 x8 | x8 | x2 D2 x4 | x8 | x8 | x8 | x2 D2 x4 | x8 | x8 | x8 | x8 | (FD) x F4 x | x6 D2 | x8 | x8 | %15
 x8 |] %16
V:3
 [B,,B,]2 [B,,B,]2 [E,B,]2 [E,B,]2 | [G,B,]2 [G,B,]2 [A,C]4 | B,2 [G,B,]2 [C,C]2 [C,G,]2 | %3
 [F,A,]4 [F,A,]2 z2 | [B,,B,]2 [B,,B,]2 [E,B,]2 [E,B,]2 | [G,B,]2 [G,B,]2 [A,C]4 | %6
 B,2 [G,B,]2 [C,C]2 [C,G,]2 | [F,A,]4 [B,,B,]2 z2 | [F,A,]3 [F,A,] [B,,B,]3 [B,,B,] | %9
 [E,B,]2 [G,B,]2 B,4 | [F,A,]2 [E,A,]2 [D,B,]2 [B,,D]2 | [C,B,]2 [C,C]2 [F,A,]4 | %12
 [D,B,]2 [F,A,]2 B,2 [_A,B,]2 | [G,B,]2 B,2 A,4 | [D,B,]2 B,2 [G,B,]2 [C,C]2 | %15
 [F,C]4 !fermata![B,,B,]2 z2 |] %16
V:4
 x8 | x8 | B,2 x6 | x8 | x8 | x8 | B,2 x6 | x8 | x8 | x4 B,4 | x8 | x8 | x4 B,2 x2 | %13
 x2 B,2 (F,2 E,2) | x2 (E,F,) x4 | x8 |] %16

